www/assets/icons/format_paint.svg

<svg xmlns="http://www.w3.org/2000/svg" width="24" height="24" viewBox="0 0 24 24" fill='currentColor'><path d="M17.5 4V3c0-.55-.45-1-1-1h-12c-.55 0-1 .45-1 1v4c0 .55.45 1 1 1h12c.55 0 1-.45 1-1V6h1v4h-10v11c0 .55.45 1 1 1h2c.55 0 1-.45 1-1v-9h8V4z"/></svg>

<svg width="24" height="24" viewBox="0 0 24 24" xmlns="http://www.w3.org/2000/svg" fill='currentColor'><path d="M17.5 4V3C17.5 2.45 17.05 2 16.5 2H4.5C3.95 2 3.5 2.45 3.5 3V7C3.5 7.55 3.95 8 4.5 8H16.5C17.05 8 17.5 7.55 17.5 7V6H18.5V10H8.5V21C8.5 21.55 8.95 22 9.5 22H11.5C12.05 22 12.5 21.55 12.5 21V12H20.5V4H17.5Z"/></svg>
